static/img/menus/ico-air-portal-lock.svg

<svg width="16" height="16" viewBox="0 0 16 16" fill="none" xmlns="http://www.w3.org/2000/svg">
<path d="M8 10C8.7364 10 9.33333 9.40307 9.33333 8.66667C9.33333 7.93027 8.7364 7.33334 8 7.33334C7.2636 7.33334 6.66667 7.93027 6.66667 8.66667C6.66667 9.40307 7.2636 10 8 10Z" stroke="currentColor" stroke-miterlimit="10"/>
<path d="M8 10C7.22967 10 6.53557 10.3267 6.04876 10.849C5.29569 11.6571 6.22877 12.6667 7.33333 12.6667H8.66667C9.77127 12.6667 10.7043 11.6571 9.95127 10.849C9.4644 10.3267 8.77033 10 8 10Z" stroke="currentColor" stroke-miterlimit="10"/>
<path d="M12.6667 5.66666H3.33333C2.78105 5.66666 2.33333 6.11438 2.33333 6.66666V13.3333C2.33333 13.8856 2.78105 14.3333 3.33333 14.3333H12.6667C13.2189 14.3333 13.6667 13.8856 13.6667 13.3333V6.66666C13.6667 6.11438 13.2189 5.66666 12.6667 5.66666Z" stroke="currentColor"/>
<path d="M10 5.33334V3.33334C10 2.22877 9.1046 1.33334 8 1.33334C6.8954 1.33334 6 2.22877 6 3.33334V5.33334" stroke="currentColor"/>
</svg>

<svg xmlns="http://www.w3.org/2000/svg" width="16" height="16" fill="none" viewBox="0 0 16 16"><path stroke="currentColor" stroke-miterlimit="10" d="M8 10a1.333 1.333 0 1 0 0-2.667A1.333 1.333 0 0 0 8 10Z"/><path stroke="currentColor" stroke-miterlimit="10" d="M8 10a2.66 2.66 0 0 0-1.951.849c-.753.808.18 1.818 1.284 1.818h1.334c1.104 0 2.037-1.01 1.284-1.818A2.66 2.66 0 0 0 8 10Z"/><path stroke="currentColor" d="M12.667 5.667H3.333a1 1 0 0 0-1 1v6.666a1 1 0 0 0 1 1h9.334a1 1 0 0 0 1-1V6.667a1 1 0 0 0-1-1ZM10 5.333v-2a2 2 0 1 0-4 0v2"/></svg>
